Obsidian/actions/22s/distribute-horizontal-margin.svg

<svg height="22" viewBox="0 0 22 22" width="22" xmlns="http://www.w3.org/2000/svg"><path d="m1 1.0039062v13.9999998h14v-13.9999998zm2 2h10v9.9999998h-10zm1 1v7.9999998h3v-7.9999998zm5 0v7.9999998h3v-7.9999998z" fill="#bebebe" transform="translate(3 3)"/></svg>

<svg xmlns="http://www.w3.org/2000/svg" width="22" height="22" viewBox="0 0 22 22">
 <defs>
  <style id="current-color-scheme" type="text/css">
   .ColorScheme-Text { color:#bebebe; } .ColorScheme-Highlight { color:#4285f4; }
  </style>
 </defs>
 <path style="fill:currentColor" class="ColorScheme-Text" d="M 1 1.0039062 L 1 15.003906 L 15 15.003906 L 15 1.0039062 L 1 1.0039062 z M 3 3.0039062 L 13 3.0039062 L 13 13.003906 L 3 13.003906 L 3 3.0039062 z M 4 4.0039062 L 4 12.003906 L 7 12.003906 L 7 4.0039062 L 4 4.0039062 z M 9 4.0039062 L 9 12.003906 L 12 12.003906 L 12 4.0039062 L 9 4.0039062 z" transform="translate(3 3)"/>
</svg>
